svg/share.svg

<svg xmlns="http://www.w3.org/2000/svg" viewBox="0 0 32 32" enable-background="new 0 0 32 32"><path d="M 16 4 C 13.856034 4 12.115821 5.7192819 12.03125 7.84375 C 8.4256342 9.3745502 6 12.943109 6 17 C 6 17.171429 5.9918718 17.361182 6 17.5625 C 4.8148148 18.259398 4 19.535137 4 21 C 4 23.197294 5.8027056 25 8 25 C 8.5746769 25 9.1294956 24.877678 9.625 24.65625 C 11.357552 26.112488 13.617671 27 16 27 C 18.382329 27 20.642448 26.112488 22.375 24.65625 C 22.870504 24.877678 23.425323 25 24 25 C 26.197294 25 28 23.197294 28 21 C 28 19.519644 27.174632 18.222803 25.96875 17.53125 C 25.984839 17.369789 26 17.208912 26 17 C 26 12.943109 23.574366 9.3745502 19.96875 7.84375 C 19.884179 5.7192819 18.143966 4 16 4 z M 16 6 C 17.116414 6 18 6.883586 18 8 C 18 9.116414 17.116414 10 16 10 C 14.883586 10 14 9.116414 14 8 C 14 6.883586 14.883586 6 16 6 z M 12.46875 9.84375 C 13.14027 11.11788 14.468937 12 16 12 C 17.531063 12 18.85973 11.11788 19.53125 9.84375 C 22.211252 11.143769 24 13.879438 24 17 C 21.802706 17 20 18.802706 20 21 C 20 21.894765 20.309727 22.70618 20.8125 23.375 C 19.474816 24.386517 17.755994 25 16 25 C 14.244006 25 12.525184 24.386517 11.1875 23.375 C 11.690273 22.70618 12 21.894765 12 21 C 12 18.802706 10.197294 17 8 17 C 8 13.879438 9.7887479 11.143769 12.46875 9.84375 z M 8 19 C 9.116414 19 10 19.883586 10 21 C 10 22.116414 9.116414 23 8 23 C 6.883586 23 6 22.116414 6 21 C 6 19.883586 6.883586 19 8 19 z M 24 19 C 25.116414 19 26 19.883586 26 21 C 26 22.116414 25.116414 23 24 23 C 22.883586 23 22 22.116414 22 21 C 22 19.883586 22.883586 19 24 19 z" color="#000" overflow="visible" enable-background="accumulate"/></svg>

<svg xmlns="http://www.w3.org/2000/svg" viewBox="0 0 32 32"><path style="text-indent:0;text-align:start;line-height:normal;text-transform:none;block-progression:tb;-inkscape-font-specification:Bitstream Vera Sans" d="M16 4c-2.144 0-3.884 1.72-3.97 3.844C8.427 9.374 6 12.944 6 17c0 .17-.008.36 0 .563-1.185.696-2 1.972-2 3.437 0 2.197 1.803 4 4 4 .575 0 1.13-.122 1.625-.344C11.358 26.112 13.618 27 16 27s4.642-.888 6.375-2.344c.496.222 1.05.344 1.625.344 2.197 0 4-1.803 4-4 0-1.48-.825-2.777-2.03-3.47.015-.16.03-.32.03-.53 0-4.057-2.426-7.625-6.03-9.156C19.883 5.72 18.143 4 16 4zm0 2c1.116 0 2 .884 2 2s-.884 2-2 2-2-.884-2-2 .884-2 2-2zm-3.53 3.844C13.14 11.118 14.47 12 16 12c1.53 0 2.86-.882 3.53-2.156C22.21 11.144 24 13.88 24 17c-2.197 0-4 1.803-4 4 0 .895.31 1.706.813 2.375C19.474 24.387 17.756 25 16 25c-1.756 0-3.475-.613-4.813-1.625.503-.67.813-1.48.813-2.375 0-2.197-1.803-4-4-4 0-3.12 1.79-5.856 4.47-7.156zM8 19c1.116 0 2 .884 2 2s-.884 2-2 2-2-.884-2-2 .884-2 2-2zm16 0c1.116 0 2 .884 2 2s-.884 2-2 2-2-.884-2-2 .884-2 2-2z" color="#000" overflow="visible" font-family="Bitstream Vera Sans"/></svg>
